src/assets/icon-20-download.svg

<?xml version="1.0" encoding="UTF-8"?>
<svg width="20px" height="20px" viewBox="0 0 20 20" version="1.1" xmlns="http://www.w3.org/2000/svg" xmlns:xlink="http://www.w3.org/1999/xlink">
    <g id="Assets" stroke="none" stroke-width="1" fill="none" fill-rule="evenodd">
        <g id="icon-20-download" fill-rule="nonzero" fill="#27322F">
            <path d="M2,12.75 L2,12 L4,12 L4,13 L16,13 L16,12 L18,12 L18,13.5 L18,16 C18,17.1045695 17.2040618,18 16.2222222,18 L3.77777778,18 C2.79593822,18 2,17.1045695 2,16 L2,12.5 L2,12.75 Z M4,13 L4,16 L16,16 L16,13 L4,13 Z" id="Combined-Shape"></path>
            <polygon id="Line" transform="translate(10.000000, 9.000000) rotate(-45.000000) translate(-10.000000, -9.000000) " points="8.5 10.5 8.5 5.5 6.5 5.5 6.5 12.5 13.5 12.5 13.5 10.5"></polygon>
            <polygon id="Line-2" points="9 1 9 12.5 11 12.5 11 1"></polygon>
        </g>
    </g>
</svg>

<svg width="20" height="20" xmlns="http://www.w3.org/2000/svg"><g fill-rule="nonzero" fill="#27322F"><path d="M2 12.75V12h2v1h12v-1h2v4c0 1.105-.796 2-1.778 2H3.778C2.796 18 2 17.105 2 16v-3.5.25zM4 13v3h12v-3H4z"/><path d="M10 11.121L6.464 7.586 5.05 9 10 13.95 14.95 9l-1.414-1.414z"/><path d="M9 1v11.5h2V1z"/></g></svg>
